X:37
T:To my Bed I Wona Gang
C:"An auld Highland Reel"
S:Petrie's Third Collection of Strathspey Reels and Country Dances &c.
Z:Steve Wyrick , 7/30/05
N:Petrie's Third Collection, page 15
L:1/8
M:C
R:Reel
K:G
g|(f/g/a) (AB) ABdF|TEDEF B2Bg|(f/g/a) AB ABdF|EDEF A2A::g|
f2fd g2ge|f2fd B2de|f2fd g2ge|faef d2d:|
